**kern
*MM76
*k[b-e-a-d-]
*M2/2
=1
1r
=2
1r
=3
1r
=4
1r
=5
1r
=6
1r
=7
1r
=8
1r
=9
1r
=10
1r
=11
1r
=12
1r
=13
1r
=14
1r
=15
1r
=16
1r
=17
2ff
2gg
=18
2aa-
2b
=19
4cc
4b-
4a-
4ee
=20
2.ff
4ff
=21
4ee
4gg
4cc
[4b-
=22
2b-]
2a-
=23
1g
=24
2cc
[2dd
=25
4dd]
8cc
8b
[2cc
=26
2cc]
2b
=27
4cc
[4gg
8gg]
8ff
8ee-
8dd
=28
[2cc
8cc]
8ee-
8dd
8cc
=29
8b
8dd
8ee-
8ff
4gg
4ff
=30
8ee-
8gg
8ee-
8dd
4cc
4ee
=31
2.ff
4ee
=32
2.ff
8ee
8dd
=33
4ee
4gg
[2cc
=34
1cc_
=35
8cc]
8b-
8cc
[8dd-
4dd-]
4dd-
=36
2.cc
4cc
=37
2ff
2gg
=38
2aa-
2b
=39
[2cc
8cc]
8dd
8b
8cc
=40
4b
2cc
4b
=41
4cc
4b-
4a-
4g
=42
2a-
2r
=43
1r
=44
1r
=45
1r
=46
1r
=47
2a-
2b-
=48
2cc
2d
=49
4e-
4d-
4c
4B-
=50
4c
4e-
[2a-
=51
4a-]
2g
4f
=52
4g
4b-
[2ee-
=53
4ee-]
2dd-
4cc
=54
4dd-
4ff
[2bb-
=55
4bb-]
2aa-
4gg
=56
4aa-
[2.gg
=57
8gg]
8gg
8ff#
8gg
2aa
=58
4dd
4gg
4aa
4bb
=59
2ccc
4aa-
4gg
=60
2ff
4bb-
4aa-
=61
4gg
4aa-
4ff
4gg
=62
4ee-
4ff
4dd
4ee-
=63
4cc
4dd-
4b-
4cc
=64
2a-
2b-
=65
2cc
2dd
=66
4g
8a-
8b-
4cc
4b-
=67
4a-
4cc
4dd-
4cc
=68
2b-
4cc
4b-
=69
2a-
4r
4ff
=70
2ee-
4r
4ee-
=71
2dd-
4r
4dd-
=72
4.cc
8dd-
4cc
4b-
=73
2a-
2r
=74
1r
=75
1r
=76
1r
=77
1r
=78
1r
=79
1r
=80
1r
=81
2ff
2gg
=82
2aa-
2b
=83
4cc
4b-
4a-
4g
=84
4f
2ff
8gg
8ff
=85
2.ee-
8dd
8cc
=86
2b
4cc
[4dd
=87
4dd]
8cc
8b
4cc
4ff
=88
2ee-
2dd
=89
4cc
4b-
2a-T
=90
8r
8g
8f#
8g
8r
8a
8g
8a
=91
8d
8g
8a
8b
8cc
8b
8cc
8dd
=92
8ee-
8cc
8b
8cc
8dd-
8b
4cc
=93
2b
4r
4b
=94
2cc
4r
4dd
=95
2ee-
4r
4ee
=96
4ff
4cc
4r
[4dd-
=97
4dd-]
4cc
4r
[4ff
=98
4ff]
4ee
4r
[4gg
=99
4gg]
4ff
4r
8ee-
[8dd-
=100
4dd-]
4cc
4r
[4b-
=101
4b-]
2a-
4g
=102
4a-
4a
4b-
4b
=103
2.cc
[4dd
=104
4dd]
2gg
[4ff
=105
4ff]
8ee-
8dd
4ee-
4ee
=106
[1ff
=107
4ff]
8ee-
8dd
4ee-
4dd-
=108
4cc
8dd
8ee
2ff
=109
4ee
8ff
8gg
4cc
4b-
=110
4a-
2ff
4ee
=111
8ff
8ee
2ff
8ee-
8dd
=112
4ee-
4ee
4.ffM
16ee
16ff
=113
4ee
[4cc
8cc]
8aa-
8ff
8cc
=114
4dd
[4b-
8b-]
8gg
8ee-
8b-
=115
4cc
[4a-
8a-]
8ff
8dd-
8a-
=116
4b-
[4g
8g]
8ee
8cc
8g
=117
8a-
8cc
8f
[8ff
8ff]
8dd-
8b-
8dd-
=118
8g
8b-
8e
[8ee
8ee]
8cc
8g
8b-
=119
8a-
8ff
8gg
8aa-
8b
8dd
8g
8b
=120
4cc
2ee-
[4dd
=121
4dd]
2cc
8dd
8cc
=122
2b
4cc
4dd
=123
2ee-
2ff
=124
2gg
2aa
=125
2dd
4cc
4b
=126
2cc
4r
[4gg
=127
4gg]
4ff
4r
4ff
=128
2ff
4r
[4dd
=129
4dd]
4cc
4r
4ee
=130
8ff
8gg
8ff
8ee
8ff
8cc
4gg
=131
8aa-
8bb-
8aa-
8gg
8aa-
8ff
4ccc
=132
8ff
8gg
8ff
8ee
8ff
8cc
4gg
=133
8aa-
8bb-
8aa-
8gg
8aa-
8ccc
4ee
=134
8ff
8gg
8ff
8ee
8ff
8dd-
8cc
8b
=135
8cc
8dd-
8cc
8b
8cc
8g
8f
8e
=136
2f
4r
4ff
=137
2ff
2ee
=138
1ff
==
*-
